X:1
T:Draw the Sword of Scotland
M:C
L:1/8
R:Air
S:John Rook music manuscript collection (Waverton, Cumbria, 1840, p. 151)
Z:AK/Fiddler’s Companion
K:G
B>ABc d2g2|e2g2d2g2|B>ABc d2 g>f|e>dc>B A2 g>a|
B2 a>g a2d2|g2e2d2 Bg|b2 a>g a d2g|egfa g2 z2|
B2 a>g a2 d>g|egfa g2 zg|g2 f>e f2 ^d2|e2 c2B2 A>A|
B>ABc d2 ga|b2 a>g !fermata!a2 ga|bbag a2d|
g2e2d2 B>B|B>ABc d !fermata!g2g|e>gf>a g2 z||

